icons/chat-off-fill.svg

<svg viewBox="0 0 24 24" fill="currentColor" xmlns="http://www.w3.org/2000/svg"><path d="M2.80777 1.39337L22.6068 21.1924L21.1925 22.6066L17.5846 18.9994L6.45516 19L2.00016 22.5V3.99997C2.00016 3.83067 2.04223 3.6712 2.11649 3.53143L1.39355 2.80759L2.80777 1.39337ZM21.0002 2.99997C21.5524 2.99997 22.0002 3.44769 22.0002 3.99997V17.785L7.21416 2.99997H21.0002Z"/></svg>

<svg xmlns="http://www.w3.org/2000/svg" viewBox="0 0 24 24">
    <g>
        <path fill="none" d="M0 0h24v24H0z"/>
        <path d="M2.808 1.393l19.799 19.8-1.415 1.414-3.608-3.608L6.455 19 2 22.5V4c0-.17.042-.329.116-.469l-.723-.723 1.415-1.415zM21 3a1 1 0 0 1 1 1v13.785L7.214 3H21z"/>
    </g>
</svg>
